X:22
T:Swallowtail Jig
M:6/8
R:jig
C:Traditional
K:Edor
GEE BE/E/E | GEE BAG | FD/D/D ADD | dcd AGF |
GEE BE/E/E | GEE B2c | dcd AGF |[1 GEE E2F :|[2 GEE E3 |
|:Bcd ee/e/f | eef edB | Bcd ee/e/f | edB dd/d/d |
Bcd ee/e/f | eef edB | dcd AGF |[1 GEE E3 :|[2 GEE E2F |]

